X:214
T:Soldier's boy - Hard
%%VWML:SBG-1-2-281-0
F:http://www.vwml.org/record/SBG/1/2/281
Z:Original Sibelius transcriptions by M. & S. Graebe
M:6/8
I:linebreak $
K:F
V:1 treble nm="P1"
V:1
 A/B/ | c2 B A2 c | (F3 E) D2 B/A/ | G2 C C2 D/E/ | F3 AB | c2 c A2 B | c2 FE D2 B | %7
 G2 G C2 D/E/ |$ F6 F | G2 F G2 A | (B2 c) d3 F/ | G2 F E2 C | c6 A | B2 c c2 A |$ c2 F (E>D) B | %15
 A2 G C2 D/E/ | F4 | A/"^....................  ?  ....................."B/ | c2 d A2 G | F4 z x | %20

